raw/symbols/fxs.svg

<svg width="42" height="42" viewBox="0 0 42 42" fill="none" xmlns="http://www.w3.org/2000/svg">
<rect width="42" height="42" rx="21" fill="#1E2739"/>
<path d="M12.314 9.83216L11 11.1462L12.662 12.8082L14.328 14.4702L14.191 14.8772C14.013 15.4112 13.941 15.8572 13.941 16.4492C13.941 18.3762 14.949 20.0172 16.735 20.9932C17.454 21.3852 18.688 21.8282 20.056 22.1802C22.728 22.8662 23.138 22.9862 23.664 23.2332C24.383 23.5732 24.739 23.9442 24.887 24.5032C24.953 24.7462 24.949 25.2912 24.884 25.5532C24.717 26.1872 24.176 26.8262 23.504 27.1752C22.597 27.6502 21.018 27.7812 19.828 27.4752C19.385 27.3672 18.757 27.0592 18.441 26.8012C17.799 26.2712 17.298 25.3562 17.076 24.3002C17.04 24.1332 17.011 23.9912 17.007 23.9842C16.997 23.9702 13.279 24.3332 13.261 24.3542C13.247 24.3652 13.258 24.5182 13.283 24.6922C13.399 25.5302 13.693 26.5292 14.031 27.2222L14.227 27.6252L12.612 29.2402L11 30.8542L12.318 32.1722L13.632 33.4862L15.298 31.8202L16.96 30.1572L17.247 30.2772C18.764 30.9162 21.04 31.1152 23.247 30.7972C23.777 30.7202 24.543 30.5382 24.946 30.3902L25.186 30.3032L26.779 31.8962L28.369 33.4862L29.682 32.1722L31 30.8542L29.523 29.3772L28.049 27.9032L28.234 27.5262C28.619 26.7532 28.779 26.0962 28.811 25.1922C28.869 23.4682 28.423 22.1682 27.407 21.0972C26.347 19.9832 25.152 19.4532 21.78 18.6042C19.403 18.0082 18.38 17.5982 17.973 17.0832C17.57 16.5752 17.533 15.8632 17.886 15.3442C18.089 15.0432 18.59 14.7202 19.134 14.5382C19.748 14.3312 20.779 14.2382 21.544 14.3172C23.16 14.4872 23.973 15.1772 24.328 16.6872C24.372 16.8722 24.412 17.0282 24.416 17.0362C24.423 17.0462 27.051 16.9522 27.838 16.9122L28.288 16.8912L28.263 16.5752C28.2181 15.953 28.0799 15.3412 27.853 14.7602L27.726 14.4222L29.363 12.7822L31 11.1462L29.686 9.82816L28.368 8.51416L26.713 10.1692L25.054 11.8282L24.652 11.6762C23.661 11.3062 22.702 11.1422 21.29 11.1022C19.748 11.0622 18.394 11.2622 17.356 11.6822L16.971 11.8392L15.301 10.1762L13.631 8.51416L12.314 9.83216Z" fill="white"/>
</svg>

<svg xmlns="http://www.w3.org/2000/svg" width="42" height="42" fill="none"><path fill="#222" d="M21 41c11.046 0 20-8.954 20-20S32.046 1 21 1 1 9.954 1 21s8.954 20 20 20Z"/><path fill="#fff" d="M12.314 9.818 11 11.132l1.662 1.662 1.666 1.662-.137.407c-.178.534-.25.98-.25 1.572 0 1.927 1.008 3.568 2.794 4.544.719.392 1.953.835 3.321 1.187 2.672.686 3.082.806 3.608 1.053.719.34 1.075.711 1.223 1.27.066.243.062.788-.003 1.05-.167.634-.708 1.273-1.38 1.622-.907.475-2.486.606-3.676.3-.443-.108-1.071-.416-1.387-.674-.642-.53-1.143-1.445-1.365-2.501-.036-.167-.065-.309-.069-.316-.01-.014-3.728.349-3.746.37-.014.011-.003.164.022.338.116.838.41 1.837.748 2.53l.196.403-1.615 1.615L11 30.84l1.318 1.318 1.314 1.314 1.666-1.666 1.662-1.663.287.12c1.517.639 3.793.838 6 .52.53-.077 1.296-.259 1.699-.407l.24-.087 1.593 1.593 1.59 1.59 1.313-1.314L31 30.84l-1.477-1.477-1.474-1.474.185-.377c.385-.773.545-1.43.577-2.334.058-1.724-.388-3.024-1.404-4.095-1.06-1.114-2.255-1.644-5.627-2.493-2.377-.596-3.4-1.006-3.807-1.521-.403-.508-.44-1.22-.087-1.739.203-.301.704-.624 1.248-.806.614-.207 1.645-.3 2.41-.221 1.616.17 2.429.86 2.784 2.37.044.185.084.341.088.349.007.01 2.635-.084 3.422-.124l.45-.021-.025-.316a6.221 6.221 0 0 0-.41-1.815l-.127-.338 1.637-1.64L31 11.132l-1.314-1.318L28.368 8.5l-1.655 1.655-1.659 1.659-.402-.152c-.991-.37-1.95-.534-3.362-.574-1.542-.04-2.896.16-3.934.58l-.385.157-1.67-1.663-1.67-1.662-1.317 1.318Z"/></svg>
